client/public/assets/icons/action/following.svg

<?xml version="1.0"?><svg xmlns="http://www.w3.org/2000/svg" width="52" height="52" viewBox="0 0 52 52"><g fill="#fff"><path d="m49.5 33.6l-2.2-2.2c-0.6-0.6-1.6-0.6-2.2 0l-9.4 9.6c-0.4 0.4-1.1 0.4-1.5 0l-4.4-4.5c-0.6-0.6-1.6-0.6-2.2 0l-2.2 2.2c-0.6 0.6-0.6 1.6 0 2.2l8.4 8.6c0.6 0.6 1.6 0.6 2.2 0l13.4-13.7c0.7-0.5 0.7-1.5 0.1-2.2z m-24.8 0.2c1-1 2.2-1.6 3.6-1.8 1.7-0.1 3.3 0.4 4.5 1.6l2.2 2.4 7.2-7.4c0.8-0.8 1.8-1.4 2.9-1.6 0.5-0.1 0.8-0.5 0.8-1v-20c0-2.2-1.8-4-4-4h-35.9c-2.2 0-4 1.8-4 4v36c0 2.2 1.8 4 4 4h16.4c0.9 0 1.3-1.1 0.7-1.7l-0.5-0.5c-2.1-2.2-2.1-5.7 0-7.9l2.1-2.1z m1.3-22.8c0-0.6 0.4-1 1-1h10c0.6 0 1 0.4 1 1v2c0 0.6-0.4 1-1 1h-10c-0.6 0-1-0.4-1-1v-2z m0 8c0-0.6 0.4-1 1-1h10c0.6 0 1 0.4 1 1v2c0 0.6-0.4 1-1 1h-10c-0.6 0-1-0.4-1-1v-2z m-16-8c0-0.6 0.4-1 1-1h10c0.6 0 1 0.4 1 1v10c0 0.6-0.4 1-1 1h-10c-0.6 0-1-0.4-1-1v-10z m8 26c0 0.6-0.4 1-0.9 1h-6.1c-0.5 0-0.9-0.4-0.9-1v-2c0-0.6 0.4-1 0.9-1h6.1c0.5 0 0.9 0.4 0.9 1v2z m-7-7c-0.6 0-1-0.4-1-1v-2c0-0.6 0.4-1 1-1h20c0.6 0 1 0.4 1 1v2c0 0.6-0.4 1-1 1h-20z"></path></g></svg>

<?xml version="1.0" encoding="utf-8"?>
<!-- Generator: Adobe Illustrator 18.1.1, SVG Export Plug-In . SVG Version: 6.00 Build 0)  -->
<svg version="1.1" id="Layer_1" xmlns="http://www.w3.org/2000/svg" xmlns:xlink="http://www.w3.org/1999/xlink" x="0px" y="0px"
	 width="52px" height="52px" viewBox="0 0 52 52" enable-background="new 0 0 52 52" xml:space="preserve">
<g>
	<path fill="#FFFFFF" d="M49.5,33.6l-2.2-2.2c-0.6-0.6-1.6-0.6-2.2,0L35.7,41c-0.4,0.4-1.1,0.4-1.5,0l-4.4-4.5
		c-0.6-0.6-1.6-0.6-2.2,0l-2.2,2.2c-0.6,0.6-0.6,1.6,0,2.2l8.4,8.6c0.6,0.6,1.6,0.6,2.2,0l13.4-13.7C50.1,35.3,50.1,34.3,49.5,33.6z
		"/>
	<path fill="#FFFFFF" d="M24.7,33.8c1-1,2.2-1.6,3.6-1.8c1.7-0.1,3.3,0.4,4.5,1.6L35,36l7.2-7.4c0.8-0.8,1.8-1.4,2.9-1.6
		c0.5-0.1,0.8-0.5,0.8-1V6c0-2.2-1.8-4-4-4H6C3.8,2,2,3.8,2,6v36c0,2.2,1.8,4,4,4h16.4c0.9,0,1.3-1.1,0.7-1.7l-0.5-0.5
		c-2.1-2.2-2.1-5.7,0-7.9L24.7,33.8z M26,11c0-0.6,0.4-1,1-1h10c0.6,0,1,0.4,1,1v2c0,0.6-0.4,1-1,1H27c-0.6,0-1-0.4-1-1V11z M26,19
		c0-0.6,0.4-1,1-1h10c0.6,0,1,0.4,1,1v2c0,0.6-0.4,1-1,1H27c-0.6,0-1-0.4-1-1V19z M10,11c0-0.6,0.4-1,1-1h10c0.6,0,1,0.4,1,1v10
		c0,0.6-0.4,1-1,1H11c-0.6,0-1-0.4-1-1V11z M18,37c0,0.6-0.4,1-0.9,1h-6.1c-0.5,0-0.9-0.4-0.9-1v-2c0-0.6,0.4-1,0.9-1h6.1
		c0.5,0,0.9,0.4,0.9,1V37z M11,30c-0.6,0-1-0.4-1-1v-2c0-0.6,0.4-1,1-1h20c0.6,0,1,0.4,1,1v2c0,0.6-0.4,1-1,1H11z"/>
</g>
</svg>
